X: 5997
T: Candlesticks
R: polka
M: 2/4
K: Eminor
|:B2 EB|AG FD|EF GA|BA GE|
B2 EB|AG FD|E2 eE|e4:|
e2 e2|d4|cd ec|B4|A2 AB|
c2 A2|1 G2 dG|d4:|2 B4|A4||

